X:1
T:Tillkomme Ditt Rike, 11.9.11.99.9
T:Gunnar Wennerberg, 1870
T:Tillkomme Ditt Rike, 11.9.11.99.9
T:Public Domain
C:Gunnar Wennerberg, 1870
Z:Public Domain
%%score ( 1 2 ) ( 3 4 )
L:1/8
M:3/4
K:Bb
V:1 treble 
V:2 treble 
V:3 bass 
V:4 bass 
V:1
 d2 | B3 A G2 | A2 D2 [B,D]2 | G3 F [CE]2 | [DF]4 [DF]2 | [DB]3 [^FA] [GB]2 | [Ac]2 [Gc]2 [Fd]2 | %7
 (E2 G4) | [^Fd]4 [Fc]2 | [GB]2 [^FA]2 [DG]2 | ^F2 G2 A2 | [DG]2 F2 E2 | [B,D]4 [A,D]2 | %13
 [B,D]2 D2 D2 | [B,G]2 [CG]2 [EA]2 | [D^F]6 | D4 [DF]2 | F3 =E F2 | [Ge]2 [Fd]2 [Ec]2 | (F4 E2) | %20
 [DB]4 D2 | D3 ^C D2 | B2 B2 (DC-) | C2 B,2 A,2 | [B,G]4 |] %25
V:2
 d2 | B3 A G2 | A2 D2 x2 | B,6 | x6 | x6 | x6 | e6 | x6 | x6 | D6 | x2 C4 | x6 | x2 D2 D2 | x6 | %15
 x6 | D4 x2 | F3 =E F2 | x6 | c6 | x4 D2 | D3 ^C D2 | D4 A2 | G6 | x4 |] %25
V:3
 D2 | B,3 A, G,2 | A,2 D,2 G,2 | E,3 D, C,2 | [B,,B,]4 B,2 | [G,B,]3 [D,D] [G,D]2 | %6
 [F,F]2 [E,C]2 [D,=B,]2 | (C4 B,2) | [D,A,]4 [A,C]2 | G,2 A,2 B,2 | [A,C]2 [G,B,]2 [^F,A,]2 | %11
 [G,B,]2 A,2 F,2 | [B,,F,]4 [D,^F,]2 | [G,,G,]2 [G,B,]2 [F,A,]2 | [E,G,]2 [E,G,]2 [C,C]2 | %15
 [D,A,]6 | [D,^F,]4 [B,,=F,]2 | A,,2 A,[G,B,] [F,A,]2 | [E,B,]2 [B,,B,]2 [C,G,]2 | [F,A,]6 | %20
 [B,,B,]4 D,2 | D,3 ^C, D,2 | G,,2 B,,2 [D,-^F,]2 | [G,,D,G,]6 | [G,,D,G,]4 |] %25
V:4
 D2 | B,3 A, G,2 | A,2 D,2 G,2 | G,6 | x4 B,2 | x6 | x6 | C,6 | x6 | D6 | x6 | x2 A,4 | x6 | x6 | %14
 x6 | x6 | x6 | C3 x3 | x6 | x6 | x4 D,2 | D,3 ^C, D,2 | G,4 x2 | x6 | x4 |] %25

